X: 9
T: Joe Derrane's
R: jig
M: 6/8
L: 1/8
K: Bmin
|:A|"Bm"BdB BAF|"A"AFE EFE|"D"DFA def|"A"afe "D"dBA|!
"Bm"BdB BAF|"A"AFE EFE|"D"DFA def|"A"edB "Bm"B2:|!
|:d|"Em"efe edB|"A"AFA "D"d2A|"D"def afa|"Bm"baf "D"afa|!
"Bm"baf "D"afa|"Bm"baf "A"edB|"D"def "A"afe|"A"dBA "Bm"B2:|
